X: 3043
T: Ther's nae luck about the House.   Or For a' that and a' that.
%R: air, strathspey
B: Niel Gow & Sons "Complete Repository" v.3 p.4 #3
Z: 2021 John Chambers <jc:trillian.mit.edu>
N: This is version 2, for ABC software that understands voice overlays and crescendo symbols
U: p=!crescendo(!
U: P=!crescendo)!
M: C
L: 1/8
Q: "Slow"
K: Bb
% - - - - - - - - - -
V: 1 staves=2
(F//G//A/) |\
~B>cBF (GB) ce | {e}d>c BF G2 G (F//G//A/) | ~B>c BF GB ce | {e}d>c BG {G}F2 F :: e | ~d>e fd ecc>e | ~d>e fB {B}G2 G>e |
~d>e fd ecc>e | {e}d>c BG F2 F>e || ~d>e fd ecc>e | ~d>e (fg) G2 G>e | p~d>e fd gcHc>Pe | !p!{e}d>c BG{G}F2 F |]
% - - - - - - - - - -
V: 2 clef=bass middle=d
z | B2 d2 ed cA | B2 d2 e2 Ez | B2 d2 eg fa | b>a ge d2 B :: z | bc' d'b c'afa & f8 | .b2 (d2 e2).Ez |
b>c' d'b c'2 a2 & f8 | b2 (e2 d2) B2 ||  b>c' d'b c'2 a2 | .b2 (d2 e2) E2 | pB2 (d2 e2) HfPz | !p!b>a ge d2 B |]


